X:578
T: GESTERN ABEND GING ICH AUS
N: E1886
O: Europa, Mitteleuropa, Deutschland, Schlesien, Fraustadt
R: Kinder - Lied, Spiel, Reigen
M: 2/4
L: 1/16
K: G
 | B3BA3A | G2B2D4
F3GA3F | A4G4
B3BA3A | G2B2D4
F3GA3F | A4G4
A2A2d4 | A2A2d4
A2A2A2A2 | d2A2A2z
A | G2G2F2F2 | E2E2D4

